devices/24/media-optical.svg

<?xml version="1.0" encoding="UTF-8" standalone="no"?>
<svg
   xmlns:dc="http://purl.org/dc/elements/1.1/"
   xmlns:cc="http://creativecommons.org/ns#"
   xmlns:rdf="http://www.w3.org/1999/02/22-rdf-syntax-ns#"
   xmlns:svg="http://www.w3.org/2000/svg"
   xmlns="http://www.w3.org/2000/svg"
   xmlns:xlink="http://www.w3.org/1999/xlink"
   version="1.1"
   width="24"
   height="24"
   id="svg4250">
  <defs
     id="defs4252">
    <linearGradient
       x1="21.448364"
       y1="15.5"
       x2="21.448364"
       y2="32.509201"
       id="linearGradient3068"
       xlink:href="#linearGradient3428"
       gradientUnits="userSpaceOnUse"
       gradientTransform="matrix(0.4374999,0,0,0.4374999,1.5,9.4999996)" />
    <linearGradient
       id="linearGradient3428">
      <stop
         id="stop3430"
         style="stop-color:#aaaaaa;stop-opacity:1"
         offset="0" />
      <stop
         id="stop3432"
         style="stop-color:#d4d4d4;stop-opacity:1"
         offset="1" />
    </linearGradient>
    <linearGradient
       x1="18.775953"
       y1="4.0378027"
       x2="18.203465"
       y2="45.962208"
       id="linearGradient3065"
       xlink:href="#linearGradient6036"
       gradientUnits="userSpaceOnUse"
       gradientTransform="matrix(0.2272999,0,0,-0.2272999,6.4659271,25.682498)" />
    <linearGradient
       id="linearGradient6036">
      <stop
         id="stop6038"
         style="stop-color:#ffffff;stop-opacity:1"
         offset="0" />
      <stop
         id="stop6040"
         style="stop-color:#ffffff;stop-opacity:0"
         offset="1" />
    </linearGradient>
    <linearGradient
       x1="71.204407"
       y1="6.2375584"
       x2="71.204407"
       y2="44.340794"
       id="linearGradient4112"
       xlink:href="#linearGradient4011"
       gradientUnits="userSpaceOnUse"
       gradientTransform="matrix(0.45945944,0,0,0.45945944,-20.958749,8.3493769)" />
    <linearGradient
       id="linearGradient4011">
      <stop
         id="stop4013"
         style="stop-color:#ffffff;stop-opacity:1"
         offset="0" />
      <stop
         id="stop4015"
         style="stop-color:#ffffff;stop-opacity:0.23529412"
         offset="0.507761" />
      <stop
         id="stop4017"
         style="stop-color:#ffffff;stop-opacity:0.15686275"
         offset="0.83456558" />
      <stop
         id="stop4019"
         style="stop-color:#ffffff;stop-opacity:0.39215687"
         offset="1" />
    </linearGradient>
    <linearGradient
       x1="20.580074"
       y1="10.774516"
       x2="24.27351"
       y2="9.8622112"
       id="linearGradient2492"
       xlink:href="#linearGradient3487"
       gradientUnits="userSpaceOnUse"
       spreadMethod="reflect" />
    <linearGradient
       id="linearGradient3487">
      <stop
         id="stop3489"
         style="stop-color:#e6cde2;stop-opacity:1"
         offset="0" />
      <stop
         id="stop3491"
         style="stop-color:#e6cde2;stop-opacity:0"
         offset="1" />
    </linearGradient>
    <linearGradient
       x1="17.494959"
       y1="11.200086"
       x2="21.047453"
       y2="9.7956104"
       id="linearGradient2494"
       xlink:href="#linearGradient3495"
       gradientUnits="userSpaceOnUse"
       spreadMethod="reflect" />
    <linearGradient
       id="linearGradient3495">
      <stop
         id="stop3497"
         style="stop-color:#c1cbe4;stop-opacity:1"
         offset="0" />
      <stop
         id="stop3499"
         style="stop-color:#c1cbe4;stop-opacity:0"
         offset="1" />
    </linearGradient>
    <linearGradient
       x1="14.084608"
       y1="13.045606"
       x2="16.994024"
       y2="10.732353"
       id="linearGradient2496"
       xlink:href="#linearGradient3503"
       gradientUnits="userSpaceOnUse"
       spreadMethod="reflect" />
    <linearGradient
       id="linearGradient3503">
      <stop
         id="stop3505"
         style="stop-color:#c4ebdd;stop-opacity:1"
         offset="0" />
      <stop
         id="stop3507"
         style="stop-color:#c4ebdd;stop-opacity:0"
         offset="1" />
    </linearGradient>
    <linearGradient
       x1="12.371647"
       y1="16.188046"
       x2="14.609327"
       y2="13.461712"
       id="linearGradient2498"
       xlink:href="#linearGradient3511"
       gradientUnits="userSpaceOnUse"
       spreadMethod="reflect" />
    <linearGradient
       id="linearGradient3511">
      <stop
         id="stop3513"
         style="stop-color:#ebeec7;stop-opacity:1"
         offset="0" />
      <stop
         id="stop3515"
         style="stop-color:#ebeec7;stop-opacity:0"
         offset="1" />
    </linearGradient>
    <linearGradient
       x1="10.609375"
       y1="17.886322"
       x2="9.7297754"
       y2="20.612656"
       id="linearGradient2500"
       xlink:href="#linearGradient3519"
       gradientUnits="userSpaceOnUse"
       spreadMethod="reflect" />
    <linearGradient
       id="linearGradient3519">
      <stop
         id="stop3521"
         style="stop-color:#fcd9cd;stop-opacity:1"
         offset="0" />
      <stop
         id="stop3523"
         style="stop-color:#fcd9cd;stop-opacity:0"
         offset="1" />
    </linearGradient>
    <linearGradient
       x1="20.580074"
       y1="10.774516"
       x2="24.27351"
       y2="9.8622112"
       id="linearGradient2480"
       xlink:href="#linearGradient3487"
       gradientUnits="userSpaceOnUse"
       spreadMethod="reflect" />
    <linearGradient
       x1="17.494959"
       y1="11.200086"
       x2="21.047453"
       y2="9.7956104"
       id="linearGradient2482"
       xlink:href="#linearGradient3495"
       gradientUnits="userSpaceOnUse"
       spreadMethod="reflect" />
    <linearGradient
       x1="14.084608"
       y1="13.045606"
       x2="16.994024"
       y2="10.732353"
       id="linearGradient2484"
       xlink:href="#linearGradient3503"
       gradientUnits="userSpaceOnUse"
       spreadMethod="reflect" />
    <linearGradient
       x1="12.371647"
       y1="16.188046"
       x2="14.609327"
       y2="13.461712"
       id="linearGradient2486"
       xlink:href="#linearGradient3511"
       gradientUnits="userSpaceOnUse"
       spreadMethod="reflect" />
    <linearGradient
       x1="10.609375"
       y1="17.886322"
       x2="9.7297754"
       y2="20.612656"
       id="linearGradient2488"
       xlink:href="#linearGradient3519"
       gradientUnits="userSpaceOnUse"
       spreadMethod="reflect" />
    <linearGradient
       x1="12.2744"
       y1="32.4165"
       x2="35.391201"
       y2="14.2033"
       id="linearGradient3072"
       xlink:href="#linearGradient3263"
       gradientUnits="userSpaceOnUse"
       gradientTransform="matrix(0,0.54545936,-0.54545936,0,24.600113,6.908972)" />
    <linearGradient
       x1="12.2744"
       y1="32.4165"
       x2="35.391201"
       y2="14.2033"
       id="linearGradient3263"
       gradientUnits="userSpaceOnUse">
      <stop
         id="stop3265"
         style="stop-color:#dedbde;stop-opacity:1"
         offset="0" />
      <stop
         id="stop3267"
         style="stop-color:#e6e6e6;stop-opacity:1"
         offset="0.5" />
      <stop
         id="stop3269"
         style="stop-color:#d2d2d2;stop-opacity:1"
         offset="1" />
    </linearGradient>
    <linearGradient
       x1="-21.915663"
       y1="3"
       x2="-21.915663"
       y2="45.032898"
       id="linearGradient3074"
       xlink:href="#linearGradient3772"
       gradientUnits="userSpaceOnUse"
       gradientTransform="matrix(0.4656319,0,0,0.4656319,24.22985,8.8248332)" />
    <linearGradient
       id="linearGradient3772">
      <stop
         id="stop3774"
         style="stop-color:#b4b4b4;stop-opacity:1"
         offset="0" />
      <stop
         id="stop3776"
         style="stop-color:#969696;stop-opacity:1"
         offset="1" />
    </linearGradient>
    <linearGradient
       id="linearGradient23419">
      <stop
         id="stop23421"
         style="stop-color:#000000;stop-opacity:1"
         offset="0" />
      <stop
         id="stop23423"
         style="stop-color:#000000;stop-opacity:0"
         offset="1" />
    </linearGradient>
    <radialGradient
       cx="23.334524"
       cy="41.63604"
       r="22.627417"
       fx="23.334524"
       fy="41.63604"
       id="radialGradient4248"
       xlink:href="#linearGradient23419"
       gradientUnits="userSpaceOnUse"
       gradientTransform="matrix(0.48613589,0,0,0.1546652,0.65624961,21.060353)" />
  </defs>
  <metadata
     id="metadata4255">
    <rdf:RDF>
      <cc:Work
         rdf:about="">
        <dc:format>image/svg+xml</dc:format>
        <dc:type
           rdf:resource="http://purl.org/dc/dcmitype/StillImage" />
        <dc:title />
      </cc:Work>
    </rdf:RDF>
  </metadata>
  <g
     transform="translate(0,-8)"
     id="layer1">
    <path
       d="M 23,27.499999 C 23.000565,29.432943 18.075533,31 12,31 5.9244668,31 0.99943355,29.432943 1,27.499999 0.99943355,25.567056 5.9244668,24 12,24 c 6.075533,0 11.000565,1.567056 11,3.499999 z"
       id="path23417"
       style="opacity:0.3;fill:url(#radialGradient4248);fill-opacity:1;fill-rule:evenodd;stroke:none;stroke-width:2;marker:none;visibility:visible;display:inline;overflow:visible" />
    <path
       d="M 21.545454,20 C 21.545454,14.709042 17.290956,10.454545 12,10.454545 6.709042,10.454545 2.4545455,14.709043 2.4545455,20 2.4545444,25.290957 6.7090425,29.545454 12,29.545454 17.290956,29.545453 21.545454,25.290957 21.545454,20 z M 15.5,20 c 0,1.791874 -1.745436,3.5 -3.5,3.5 -1.792116,0 -3.5,-1.822747 -3.5,-3.5 0,-1.714806 1.648901,-3.5 3.5,-3.5 1.888644,0 3.5,1.670604 3.5,3.5 z"
       id="path2781"
       style="fill:url(#linearGradient3072);fill-rule:nonzero;stroke:url(#linearGradient3074);stroke-width:1.00000012;stroke-miterlimit:4;stroke-opacity:1" />
    <path
       d="m 12,16.441 c -1.964568,0 -3.5590002,1.594432 -3.5590002,3.559 0,1.964568 1.5944322,3.559 3.5590002,3.559 1.964568,0 3.559,-1.594432 3.559,-3.559 0,-1.964568 -1.594432,-3.559 -3.559,-3.559 z m 0,1.7795 c 0.982284,0 1.7795,0.797216 1.7795,1.7795 0,0.982284 -0.797216,1.7795 -1.7795,1.7795 -0.982284,0 -1.7795,-0.797216 -1.7795,-1.7795 0,-0.982284 0.797216,-1.7795 1.7795,-1.7795 z"
       id="path2474"
       style="opacity:0.5;fill:#ffffff;fill-opacity:1;fill-rule:nonzero;stroke:none;stroke-width:1;marker:none;visibility:visible;display:inline;overflow:visible;enable-background:accumulate" />
    <g
       transform="matrix(0.444875,0,0,0.444875,1.323,9.3229999)"
       id="g3527">
      <path
         d="M 15.856928,5.7307748 20.625,16.34375 C 21.660403,15.885186 22.795334,15.625 24,15.625 c 0.03206,0 0.06178,-3.6e-4 0.09375,0 L 24.10801,4.0047512 c -2.94215,-0.070687 -5.543041,0.6572865 -8.251083,1.7260236 z"
         transform="matrix(0.9996011,0.02824295,-0.02824295,0.9996011,0.6924114,-0.6708346)"
         id="path3296"
         style="opacity:0.8;fill:url(#linearGradient2480);fill-opacity:1;fill-rule:nonzero;stroke:none" />
      <path
         d="m 12.121471,7.9060109 6.931026,9.3601041 c 0.913109,-0.669755 1.965938,-1.167064 3.142629,-1.425169 0.03132,-0.0069 0.06026,-0.01359 0.09157,-0.02009 L 19.857174,4.426276 c -2.888973,0.5613244 -5.31953,1.8556038 -7.735703,3.4797349 z"
         id="path3308"
         style="opacity:0.8;fill:url(#linearGradient2482);fill-opacity:1;fill-rule:nonzero;stroke:none" />
      <path
         d="m 8.2523933,11.646535 9.2137237,7.155818 c 0.70865,-0.883264 1.596891,-1.636119 2.666685,-2.18998 0.02847,-0.01474 0.05469,-0.02872 0.08325,-0.0431 L 14.86585,6.2506132 C 12.220599,7.5405321 10.165881,9.452393 8.2523933,11.646535 z"
         id="path3310"
         style="opacity:0.8;fill:url(#linearGradient2484);fill-opacity:1;fill-rule:nonzero;stroke:none" />
      <path
         d="m 5.6328855,16.073974 c 7.1748065,2.242248 7.8502625,7.031463 12.7767855,1.754127 L 10.499985,9.1321388 C 8.2787249,11.062747 6.9132871,13.459349 5.6328855,16.073974 z"
         id="path3312"
         style="opacity:0.8;fill:url(#linearGradient2486);fill-opacity:1;fill-rule:nonzero;stroke:none" />
      <path
         d="M 7.155289,13.193173 C 5.9722117,14.945185 5.2475768,16.829547 4.6301929,18.837116 L 15.96875,21.8125 C 16.184264,21.049497 16.486796,20.297733 16.9375,19.59375 16.95479,19.56675 16.98246,19.52673 17,19.5 L 7.155289,13.193173 z"
         id="path3314"
         style="opacity:0.8;fill:url(#linearGradient2488);fill-opacity:1;fill-rule:nonzero;stroke:none" />
    </g>
    <g
       transform="matrix(-0.444875,0,0,-0.444875,22.677,30.672922)"
       id="g3297">
      <path
         d="M 15.856928,5.7307748 20.625,16.34375 C 21.660403,15.885186 22.795334,15.625 24,15.625 c 0.03206,0 0.06178,-3.6e-4 0.09375,0 L 24.10801,4.0047512 c -2.94215,-0.070687 -5.543041,0.6572865 -8.251083,1.7260236 z"
         transform="matrix(0.9996011,0.02824295,-0.02824295,0.9996011,0.6924114,-0.6708346)"
         id="path3299"
         style="opacity:0.8;fill:url(#linearGradient2492);fill-opacity:1;fill-rule:nonzero;stroke:none" />
      <path
         d="m 12.121471,7.9060109 6.931026,9.3601041 c 0.913109,-0.669755 1.965938,-1.167064 3.142629,-1.425169 0.03132,-0.0069 0.06026,-0.01359 0.09157,-0.02009 L 19.857174,4.426276 c -2.888973,0.5613244 -5.31953,1.8556038 -7.735703,3.4797349 z"
         id="path3301"
         style="opacity:0.8;fill:url(#linearGradient2494);fill-opacity:1;fill-rule:nonzero;stroke:none" />
      <path
         d="m 8.2523933,11.646535 9.2137237,7.155818 c 0.70865,-0.883264 1.596891,-1.636119 2.666685,-2.18998 0.02847,-0.01474 0.05469,-0.02872 0.08325,-0.0431 L 14.86585,6.2506132 C 12.220599,7.5405321 10.165881,9.452393 8.2523933,11.646535 z"
         id="path3303"
         style="opacity:0.8;fill:url(#linearGradient2496);fill-opacity:1;fill-rule:nonzero;stroke:none" />
      <path
         d="m 5.6328855,16.073974 c 7.1748065,2.242248 7.8502625,7.031463 12.7767855,1.754127 L 10.499985,9.1321388 C 8.2787249,11.062747 6.9132871,13.459349 5.6328855,16.073974 z"
         id="path3305"
         style="opacity:0.8;fill:url(#linearGradient2498);fill-opacity:1;fill-rule:nonzero;stroke:none" />
      <path
         d="M 7.155289,13.193173 C 5.9722117,14.945185 5.2475768,16.829547 4.6301929,18.837116 L 15.96875,21.8125 C 16.184264,21.049497 16.486796,20.297733 16.9375,19.59375 16.95479,19.56675 16.98246,19.52673 17,19.5 L 7.155289,13.193173 z"
         id="path3307"
         style="opacity:0.8;fill:url(#linearGradient2500);fill-opacity:1;fill-rule:nonzero;stroke:none" />
    </g>
    <path
       d="M 20.499893,19.999699 C 20.499893,24.694271 16.694033,28.5 12,28.5 c -4.6944621,0 -8.5001081,-3.805772 -8.5001081,-8.500301 0,-4.694354 3.805646,-8.499698 8.5001081,-8.499698 4.694033,0 8.499893,3.805344 8.499893,8.499698 l 0,0 z"
       id="path8655"
       style="opacity:0.55;color:#000000;fill:none;stroke:url(#linearGradient4112);stroke-width:1;stroke-linecap:round;stroke-linejoin:round;stroke-miterlimit:4;stroke-opacity:1;stroke-dasharray:none;stroke-dashoffset:0;marker:none;visibility:visible;display:inline;overflow:visible;enable-background:accumulate" />
    <path
       d="m 12,24.5 c -2.4942862,0 -4.5000005,-2.005714 -4.5000005,-4.500001 0,-2.494285 2.0057142,-4.5 4.5000005,-4.5 2.494287,0 4.5,2.005715 4.5,4.5 C 16.5,22.494286 14.494287,24.5 12,24.5 l 0,0 0,0 z"
       id="path3281"
       style="opacity:0.4;fill:none;stroke:url(#linearGradient3065);stroke-width:0.99999976;stroke-miterlimit:4;stroke-opacity:1" />
    <path
       d="m 11.999999,16.499999 c -1.932,0 -3.4999993,1.568 -3.4999993,3.500001 0,1.932 1.5679993,3.499999 3.4999993,3.499999 1.932001,0 3.5,-1.567999 3.5,-3.499999 0,-1.932001 -1.567999,-3.500001 -3.5,-3.500001 z m 0,1.750002 c 0.966001,0 1.75,0.783999 1.75,1.749999 0,0.966 -0.783999,1.75 -1.75,1.75 -0.965999,0 -1.749998,-0.784 -1.749998,-1.75 0,-0.965999 0.783999,-1.749999 1.749998,-1.749999 z"
       id="path3418"
       style="fill:none;stroke:url(#linearGradient3068);stroke-width:1.00000024;stroke-linecap:butt;stroke-linejoin:round;stroke-miterlimit:4;stroke-opacity:1;stroke-dasharray:none;stroke-dashoffset:0;marker:none;visibility:visible;display:inline;overflow:visible;enable-background:accumulate" />
  </g>
</svg>

<svg xmlns="http://www.w3.org/2000/svg" xmlns:xlink="http://www.w3.org/1999/xlink" viewBox="0 0 24 24"><defs><linearGradient x1="21.448" y1="15.5" x2="21.448" y2="32.509" id="A" xlink:href="#a" gradientUnits="userSpaceOnUse" gradientTransform="translate(1.5 9.5) scale(.4375)"/><linearGradient id="a"><stop offset="0" stop-color="#aaa"/><stop offset="1" stop-color="#d4d4d4"/></linearGradient><linearGradient x1="18.776" y1="4.038" x2="18.203" y2="45.962" id="z" xlink:href="#b" gradientUnits="userSpaceOnUse" gradientTransform="matrix(.2273 0 0 -.2273 6.466 25.682)"/><linearGradient id="b"><stop offset="0" stop-color="#fff"/><stop offset="1" stop-color="#fff" stop-opacity="0"/></linearGradient><linearGradient x1="71.204" y1="6.238" x2="71.204" y2="44.341" id="y" xlink:href="#c" gradientUnits="userSpaceOnUse" gradientTransform="translate(-20.96 8.35) scale(.45946)"/><linearGradient id="c"><stop offset="0" stop-color="#fff"/><stop offset=".508" stop-color="#fff" stop-opacity=".235"/><stop offset=".835" stop-color="#fff" stop-opacity=".157"/><stop offset="1" stop-color="#fff" stop-opacity=".392"/></linearGradient><linearGradient x1="20.58" y1="10.775" x2="24.274" y2="9.862" id="t" xlink:href="#d" gradientUnits="userSpaceOnUse" spreadMethod="reflect"/><linearGradient id="d"><stop offset="0" stop-color="#e6cde2"/><stop offset="1" stop-color="#e6cde2" stop-opacity="0"/></linearGradient><linearGradient x1="17.495" y1="11.2" x2="21.047" y2="9.796" id="u" xlink:href="#e" gradientUnits="userSpaceOnUse" spreadMethod="reflect"/><linearGradient id="e"><stop offset="0" stop-color="#c1cbe4"/><stop offset="1" stop-color="#c1cbe4" stop-opacity="0"/></linearGradient><linearGradient x1="14.085" y1="13.046" x2="16.994" y2="10.732" id="v" xlink:href="#f" gradientUnits="userSpaceOnUse" spreadMethod="reflect"/><linearGradient id="f"><stop offset="0" stop-color="#c4ebdd"/><stop offset="1" stop-color="#c4ebdd" stop-opacity="0"/></linearGradient><linearGradient x1="12.372" y1="16.188" x2="14.609" y2="13.462" id="w" xlink:href="#g" gradientUnits="userSpaceOnUse" spreadMethod="reflect"/><linearGradient id="g"><stop offset="0" stop-color="#ebeec7"/><stop offset="1" stop-color="#ebeec7" stop-opacity="0"/></linearGradient><linearGradient x1="10.609" y1="17.886" x2="9.73" y2="20.613" id="x" xlink:href="#h" gradientUnits="userSpaceOnUse" spreadMethod="reflect"/><linearGradient id="h"><stop offset="0" stop-color="#fcd9cd"/><stop offset="1" stop-color="#fcd9cd" stop-opacity="0"/></linearGradient><linearGradient x1="20.58" y1="10.775" x2="24.274" y2="9.862" id="o" xlink:href="#d" gradientUnits="userSpaceOnUse" spreadMethod="reflect"/><linearGradient x1="17.495" y1="11.2" x2="21.047" y2="9.796" id="p" xlink:href="#e" gradientUnits="userSpaceOnUse" spreadMethod="reflect"/><linearGradient x1="14.085" y1="13.046" x2="16.994" y2="10.732" id="q" xlink:href="#f" gradientUnits="userSpaceOnUse" spreadMethod="reflect"/><linearGradient x1="12.372" y1="16.188" x2="14.609" y2="13.462" id="r" xlink:href="#g" gradientUnits="userSpaceOnUse" spreadMethod="reflect"/><linearGradient x1="10.609" y1="17.886" x2="9.73" y2="20.613" id="s" xlink:href="#h" gradientUnits="userSpaceOnUse" spreadMethod="reflect"/><linearGradient x1="12.274" y1="32.416" x2="35.391" y2="14.203" id="m" xlink:href="#i" gradientUnits="userSpaceOnUse" gradientTransform="matrix(0 .54546 -.54546 0 24.6 6.91)"/><linearGradient x1="12.274" y1="32.416" x2="35.391" y2="14.203" id="i" gradientUnits="userSpaceOnUse"><stop offset="0" stop-color="#dedbde"/><stop offset=".5" stop-color="#e6e6e6"/><stop offset="1" stop-color="#d2d2d2"/></linearGradient><linearGradient x1="-21.916" y1="3" x2="-21.916" y2="45.033" id="n" xlink:href="#j" gradientUnits="userSpaceOnUse" gradientTransform="translate(24.23 8.825) scale(.46563)"/><linearGradient id="j"><stop offset="0" stop-color="#b4b4b4"/><stop offset="1" stop-color="#969696"/></linearGradient><linearGradient id="k"><stop offset="0"/><stop offset="1" stop-opacity="0"/></linearGradient><radialGradient cx="23.335" cy="41.636" r="22.627" fx="23.335" fy="41.636" id="l" xlink:href="#k" gradientUnits="userSpaceOnUse" gradientTransform="matrix(.48614 0 0 .15467 .656 21.06)"/></defs><path d="M23 27.5c0 1.933-4.924 3.5-11 3.5S1 29.433 1 27.5 5.924 24 12 24s11 1.567 11 3.5z" opacity=".3" fill="url(#l)" fill-rule="evenodd" overflow="visible" transform="translate(0 -8)"/><path d="M21.545 20A9.52 9.52 0 0 0 12 10.455 9.52 9.52 0 0 0 2.455 20 9.52 9.52 0 0 0 12 29.545 9.52 9.52 0 0 0 21.545 20zM15.5 20c0 1.792-1.745 3.5-3.5 3.5-1.792 0-3.5-1.823-3.5-3.5 0-1.715 1.65-3.5 3.5-3.5 1.89 0 3.5 1.67 3.5 3.5z" fill="url(#m)" stroke="url(#n)" transform="translate(0 -8)"/><path d="M12 8.44A3.56 3.56 0 0 0 8.44 12 3.56 3.56 0 0 0 12 15.56 3.56 3.56 0 0 0 15.56 12 3.56 3.56 0 0 0 12 8.44zm0 1.78a1.78 1.78 0 1 1 0 3.56 1.78 1.78 0 0 1 0-3.56z" opacity=".5" fill="#fff" overflow="visible"/><path d="M15.857 5.73l4.768 10.614a8.293 8.293 0 0 1 3.375-.72h.094l.014-11.62c-2.942-.07-5.543.658-8.25 1.727z" transform="matrix(.4447 .01256 -.01256 .4447 1.63 1.025)" opacity=".8" fill="url(#o)"/><path d="M12.12 7.906l6.932 9.36a8.293 8.293 0 0 1 3.143-1.425l.092-.02-2.43-11.392c-2.89.562-5.32 1.856-7.736 3.48z" opacity=".8" fill="url(#p)" transform="translate(1.323 1.323) scale(.44488)"/><path d="M8.252 11.647l9.214 7.155a8.293 8.293 0 0 1 2.667-2.19l.083-.043-5.35-10.32c-2.645 1.29-4.7 3.2-6.614 5.395z" opacity=".8" fill="url(#q)" transform="translate(1.323 1.323) scale(.44488)"/><path d="M5.633 16.074c7.175 2.242 7.85 7.03 12.777 1.754L10.5 9.132c-2.22 1.93-3.587 4.327-4.867 6.942z" opacity=".8" fill="url(#r)" transform="translate(1.323 1.323) scale(.44488)"/><path d="M7.155 13.193c-1.183 1.752-1.907 3.637-2.525 5.644l11.34 2.976a8.19 8.19 0 0 1 .967-2.22L17 19.5l-9.845-6.307z" opacity=".8" fill="url(#s)" transform="translate(1.323 1.323) scale(.44488)"/><path d="M15.857 5.73l4.768 10.614a8.293 8.293 0 0 1 3.375-.72h.094l.014-11.62c-2.942-.07-5.543.658-8.25 1.727z" transform="matrix(-.4447 -.01256 .01256 -.4447 22.37 22.97)" opacity=".8" fill="url(#t)"/><path d="M12.12 7.906l6.932 9.36a8.293 8.293 0 0 1 3.143-1.425l.092-.02-2.43-11.392c-2.89.562-5.32 1.856-7.736 3.48z" opacity=".8" fill="url(#u)" transform="rotate(180 11.338 11.336) scale(.44488)"/><path d="M8.252 11.647l9.214 7.155a8.293 8.293 0 0 1 2.667-2.19l.083-.043-5.35-10.32c-2.645 1.29-4.7 3.2-6.614 5.395z" opacity=".8" fill="url(#v)" transform="rotate(180 11.338 11.336) scale(.44488)"/><path d="M5.633 16.074c7.175 2.242 7.85 7.03 12.777 1.754L10.5 9.132c-2.22 1.93-3.587 4.327-4.867 6.942z" opacity=".8" fill="url(#w)" transform="rotate(180 11.338 11.336) scale(.44488)"/><path d="M7.155 13.193c-1.183 1.752-1.907 3.637-2.525 5.644l11.34 2.976a8.19 8.19 0 0 1 .967-2.22L17 19.5l-9.845-6.307z" opacity=".8" fill="url(#x)" transform="rotate(180 11.338 11.336) scale(.44488)"/><path d="M20.5 20a8.5 8.5 0 1 1-17 0 8.5 8.5 0 0 1 17 0z" opacity=".55" color="#000" fill="none" stroke="url(#y)" stroke-linecap="round" stroke-linejoin="round" overflow="visible" transform="translate(0 -8)"/><path d="M12 24.5A4.49 4.49 0 0 1 7.5 20a4.49 4.49 0 0 1 4.5-4.5 4.49 4.49 0 0 1 4.5 4.5 4.49 4.49 0 0 1-4.5 4.5z" opacity=".4" fill="none" stroke="url(#z)" transform="translate(0 -8)"/><path d="M12 16.5A3.5 3.5 0 0 0 8.5 20a3.5 3.5 0 0 0 3.5 3.5 3.5 3.5 0 0 0 3.5-3.5 3.5 3.5 0 0 0-3.5-3.5zm0 1.75a1.75 1.75 0 1 1 0 3.5 1.75 1.75 0 0 1 0-3.5z" fill="none" stroke="url(#A)" stroke-linejoin="round" overflow="visible" transform="translate(0 -8)"/></svg>
